Newaita-dark/apps/32/kvantum.svg

<svg height="32" viewBox="0 0 32 32" width="32" xmlns="http://www.w3.org/2000/svg" xmlns:xlink="http://www.w3.org/1999/xlink"><linearGradient id="a" gradientUnits="userSpaceOnUse" x1="15.87652" x2="15.87652" y1="28.033936" y2="29.35698000003"><stop offset="0" stop-opacity=".27451"/><stop offset="1" stop-opacity="0"/></linearGradient><linearGradient id="b"><stop offset="0" stop-opacity=".313726"/><stop offset=".222222" stop-opacity=".27451"/><stop offset="1" stop-opacity="0"/></linearGradient><radialGradient id="c" cx="450.908936" cy="189.579361" gradientTransform="matrix(.00000017 -.0781325 -.140638 -.0000001 53.12293 63.595333)" gradientUnits="userSpaceOnUse" r="21.166656" xlink:href="#b"/><radialGradient id="d" cx="450.908936" cy="189.579361" gradientTransform="matrix(-.00000017 .0781325 .140638 .0000001 -21.20452 -7.527479)" gradientUnits="userSpaceOnUse" r="21.166656" xlink:href="#b"/><radialGradient id="e" cx="450.908936" cy="189.579361" gradientTransform="matrix(-.00000017 -.0781325 .140638 -.0000001 -21.20452 63.595333)" gradientUnits="userSpaceOnUse" r="21.166656" xlink:href="#b"/><radialGradient id="f" cx="450.908936" cy="189.579361" gradientTransform="matrix(.00000017 .0781325 -.140638 .0000001 53.122929 -7.527479)" gradientUnits="userSpaceOnUse" r="21.166656" xlink:href="#b"/><linearGradient id="g" gradientUnits="userSpaceOnUse" x1="15.876524" x2="15.876524" y1="2.89610500006" y2="28.033934"><stop offset="0" stop-color="#7986cb"/><stop offset="1" stop-color="#5c6bc0"/></linearGradient><linearGradient id="h" gradientUnits="userSpaceOnUse" x1="15.876524" x2="15.876524" y1="2.89610500006" y2="28.033934"><stop offset="0" stop-color="#4db6ac"/><stop offset="1" stop-color="#26a69a"/></linearGradient><linearGradient id="i" gradientUnits="userSpaceOnUse" x1="15.876524" x2="15.876524" y1="2.89610500006" y2="28.033934"><stop offset="0" stop-color="#ffb74d"/><stop offset="1" stop-color="#ffa726"/></linearGradient><linearGradient id="j" gradientUnits="userSpaceOnUse" x1="15.87648" x2="15.87648" y1="28.03386419623" y2="2.89610370009"><stop offset="0" stop-color="#bdbdbd"/><stop offset="1" stop-color="#e0e0e0"/></linearGradient><path d="m4.449219 2.933594h22.851562c.816407 0 1.476563.660156 1.476563 1.472656v22.117188c0 .8125-.660156 1.472656-1.476563 1.472656h-22.851562c-.8125 0-1.472657-.660156-1.472657-1.472656v-22.117188c0-.8125.660157-1.472656 1.472657-1.472656zm0 0" fill="#7986cb" fill-opacity=".716129"/><path d="m5.125 28.035156h21.667969v1.320313h-21.667969zm0 0" fill="url(#a)"/><path d="m26.792969 28.035156h2.644531v-1.324218h-2.644531zm0 0" fill="url(#c)"/><path d="m5.125 28.035156h-2.644531v1.320313h2.644531zm0 0" fill="url(#d)"/><path d="m5.125 28.035156h-2.644531v-1.324218h2.644531zm0 0" fill="url(#e)"/><path d="m26.792969 28.035156h2.644531v1.320313h-2.644531zm0 0" fill="url(#f)"/><path d="m4.449219 2.933594c-.816407 0-1.472657.65625-1.472657 1.472656v22.117188c0 .816406.65625 1.472656 1.472657 1.472656h22.851562c.816407 0 1.476563-.65625 1.476563-1.472656v-22.117188c0-.816406-.660156-1.472656-1.476563-1.472656zm0 0" fill="url(#g)"/><path d="m23.773438 2.933594-20.796876 18.195312v5.394532c0 .816406.65625 1.472656 1.472657 1.472656h22.851562c.816407 0 1.476563-.65625 1.476563-1.472656v-22.117188c0-.816406-.660156-1.472656-1.476563-1.472656zm0 0" fill="url(#h)"/><path d="m28.777344 8.5-20.796875 19.496094h19.320312c.816407 0 1.476563-.65625 1.476563-1.472656zm0 0" fill="url(#i)"/><path d="m11.230469 6.515625c-.550781.007813-.992188.460937-.984375 1.011719v7.167968c-.007813.078126-.007813.15625 0 .238282v5.824218c-.003906.359376.1875.691407.496094.875.3125.179688.695312.179688 1.007812 0 .308594-.183593.5-.515624.496094-.875v-5.597656l.644531-.789062 4.078125 8.15625c.164062.328125.496094.539062.863281.550781.371094.011719.714844-.183594.894531-.503906l5.292969-9.261719c.183594-.308594.1875-.691406.003907-1.003906-.179688-.3125-.511719-.503906-.871094-.5-.363282.003906-.691406.199218-.867188.515625l-4.367187 7.640625-3.640625-7.289063 3.695312-4.515625c.253906-.300781.304688-.722656.136719-1.078125-.171875-.355469-.535156-.574219-.929687-.5625-.292969.007813-.570313.144531-.753907.375l-4.179687 5.113281v-4.480468c.003906-.269532-.101563-.53125-.292969-.722656-.191406-.1875-.453125-.292969-.722656-.289063zm0 0" fill="url(#j)"/><path d="m11.230469 6.515625c-.550781.007813-.992188.460937-.984375 1.011719v.332031c-.007813-.550781.433594-1.003906.984375-1.011719.269531-.007812.53125.097656.722656.289063.191406.191406.296875.453125.292969.722656v-.332031c.003906-.269532-.101563-.53125-.292969-.722656-.191406-.1875-.453125-.292969-.722656-.289063zm5.949219.003906c-.292969.007813-.570313.144531-.753907.375l-4.179687 5.113281v.328126l4.179687-5.109376c.183594-.230468.460938-.367187.753907-.378906.496093-.011718.929687.34375 1.011718.835938.050782-.292969-.035156-.597656-.230468-.824219-.195313-.222656-.484376-.351563-.78125-.339844zm5.984374 5.289063c-.363281 0-.703124.195312-.878906.515625l-4.367187 7.640625-3.480469-6.96875-.160156.199218.101562.203126.058594-.070313 3.480469 6.96875 4.367187-7.640625c.175782-.320312.515625-.519531.878906-.515625.484376.003906.898438.355469.980469.832031.046875-.289062-.03125-.582031-.222656-.808594-.1875-.222656-.464844-.355468-.757813-.355468zm-12.917968 2.886718c-.007813.078126-.007813.15625 0 .238282zm0 0" fill="#fff" fill-opacity=".716129"/><path d="m18.117188 7.894531c-.039063.082031-.085938.160157-.144532.230469l-3.695312 4.515625.253906.515625 3.441406-4.203125c.246094-.296875.304688-.707031.144532-1.058594zm5.953124 5.292969c-.015624.03125-.03125.0625-.050781.09375l-5.292969 9.261719c-.179687.316406-.523437.511719-.894531.5-.367187-.007813-.699219-.222657-.863281-.550781l-4.078125-8.15625-.644531.789062v.828125l.644531-.789063 4.078125 8.15625c.164062.328126.496094.539063.863281.550782.371094.011718.714844-.183594.894531-.503906l5.292969-9.261719c.164063-.277344.183594-.621094.050781-.917969zm-13.824218 2.300781c-.007813.078125-.007813.15625 0 .238281zm0 5.234375v.828125c-.003906.359375.1875.691407.496094.875.3125.179688.695312.179688 1.007812 0 .308594-.183593.5-.515625.496094-.875v-.828125c.003906.359375-.1875.695313-.496094.875-.3125.179688-.695312.179688-1.007812 0-.308594-.179687-.5-.515625-.496094-.875zm0 0" fill-opacity=".235294"/><path d="m679.069046 393.978146c-33.303908.472396-59.994274 27.871355-59.521878 61.175263v433.4232c-.472396 4.723959-.472396 9.447917 0 14.408074v352.171112c-.236198 21.73021 11.337501 41.807034 29.997137 52.908336 18.895834 10.865105 42.043231 10.865105 60.939066 0 18.659636-11.101302 30.233335-31.178126 29.997137-52.908336v-338.471632l38.972658-47.711982 246.590638 493.181276c9.920313 19.840626 29.997137 32.595314 52.199742 33.303908 22.438804.708594 43.224221-11.101303 54.089326-30.469533l320.048194-560.02529c11.101303-18.659636 11.337501-41.807033.236198-60.702867-10.865105-18.895835-30.941929-30.469533-52.672138-30.233335-21.966408.236198-41.807034 12.046094-52.435941 31.178126l-264.069284 462.00315-220.13647-440.745336 223.443241-273.044806c15.352865-18.187241 18.423438-43.696617 8.266927-65.190629-10.392709-21.494011-32.359116-34.721095-56.215107-34.012501-17.714845.472395-34.484898 8.739323-45.5862 22.675001l-252.731784 309.183089v-270.919025c.236198-16.297657-6.141146-32.122918-17.714845-43.696617-11.573699-11.3375-27.39896-17.714844-43.696617-17.478646zm0 0" fill="none" stroke="#212121" stroke-linecap="round" stroke-linejoin="round" stroke-width="11.338583" transform="scale(.016538)"/><path d="m4.449219 2.933594c-.816407 0-1.472657.65625-1.472657 1.472656v.292969c0-.816407.65625-1.472657 1.472657-1.472657h22.851562c.816407 0 1.476563.65625 1.476563 1.472657v-.292969c0-.816406-.660156-1.472656-1.476563-1.472656zm0 0" fill="#fff" fill-opacity=".392157"/><path d="m4.449219 28.035156c-.816407 0-1.472657-.660156-1.472657-1.476562v-.414063c0 .816407.65625 1.476563 1.472657 1.476563h22.851562c.816407 0 1.476563-.660156 1.476563-1.476563v.414063c0 .816406-.660156 1.476562-1.476563 1.476562zm0 0" fill-opacity=".235294"/><path d="m68.805929-168.691922h370.402129c11.686384 0 21.185477 9.499093 21.185477 21.185477v359.840637c0 11.686384-9.499093 21.185477-21.185477 21.185477h-370.402129c-11.686384 0-21.185477-9.499093-21.185477-21.185477v-359.840637c0-11.686384 9.499093-21.185477 21.185477-21.185477zm0 0" fill="none" stroke="#212121" stroke-linecap="round" stroke-linejoin="round" stroke-width="3" transform="matrix(.062506 0 0 .062506 0 13.438783)"/></svg>

<?xml version="1.0" encoding="UTF-8"?>
<svg xmlns="http://www.w3.org/2000/svg" xmlns:xlink="http://www.w3.org/1999/xlink" width="32px" height="32px" viewBox="0 0 32 32" version="1.1">
<defs>
<linearGradient id="linear0" gradientUnits="userSpaceOnUse" x1="254" y1="233.5" x2="254" y2="254.666672" gradientTransform="matrix(0.062506,0,0,0.062506,-0.00000381506,13.438785)">
<stop offset="0" style="stop-color:rgb(0%,0%,0%);stop-opacity:0.27451;"/>
<stop offset="1" style="stop-color:rgb(0%,0%,0%);stop-opacity:0;"/>
</linearGradient>
<radialGradient id="radial0" gradientUnits="userSpaceOnUse" cx="450.908936" cy="189.579361" fx="450.908936" fy="189.579361" r="21.166656" gradientTransform="matrix(0.00000017417,-0.0781325,-0.140638,-0.000000101539,53.12293,63.595333)">
<stop offset="0" style="stop-color:rgb(0%,0%,0%);stop-opacity:0.313726;"/>
<stop offset="0.222222" style="stop-color:rgb(0%,0%,0%);stop-opacity:0.27451;"/>
<stop offset="1" style="stop-color:rgb(0%,0%,0%);stop-opacity:0;"/>
</radialGradient>
<radialGradient id="radial1" gradientUnits="userSpaceOnUse" cx="450.908936" cy="189.579361" fx="450.908936" fy="189.579361" r="21.166656" gradientTransform="matrix(-0.00000017417,0.0781325,0.140638,0.000000101539,-21.20452,-7.527479)">
<stop offset="0" style="stop-color:rgb(0%,0%,0%);stop-opacity:0.313726;"/>
<stop offset="0.222222" style="stop-color:rgb(0%,0%,0%);stop-opacity:0.27451;"/>
<stop offset="1" style="stop-color:rgb(0%,0%,0%);stop-opacity:0;"/>
</radialGradient>
<radialGradient id="radial2" gradientUnits="userSpaceOnUse" cx="450.908936" cy="189.579361" fx="450.908936" fy="189.579361" r="21.166656" gradientTransform="matrix(-0.00000017417,-0.0781325,0.140638,-0.000000101539,-21.20452,63.595333)">
<stop offset="0" style="stop-color:rgb(0%,0%,0%);stop-opacity:0.313726;"/>
<stop offset="0.222222" style="stop-color:rgb(0%,0%,0%);stop-opacity:0.27451;"/>
<stop offset="1" style="stop-color:rgb(0%,0%,0%);stop-opacity:0;"/>
</radialGradient>
<radialGradient id="radial3" gradientUnits="userSpaceOnUse" cx="450.908936" cy="189.579361" fx="450.908936" fy="189.579361" r="21.166656" gradientTransform="matrix(0.00000017417,0.0781325,-0.140638,0.000000101539,53.122929,-7.527479)">
<stop offset="0" style="stop-color:rgb(0%,0%,0%);stop-opacity:0.313726;"/>
<stop offset="0.222222" style="stop-color:rgb(0%,0%,0%);stop-opacity:0.27451;"/>
<stop offset="1" style="stop-color:rgb(0%,0%,0%);stop-opacity:0;"/>
</radialGradient>
<linearGradient id="linear1" gradientUnits="userSpaceOnUse" x1="254" y1="-168.666656" x2="254" y2="233.5" gradientTransform="matrix(0.062506,0,0,0.062506,0,13.438783)">
<stop offset="0" style="stop-color:rgb(47.450981%,52.549022%,79.607844%);stop-opacity:1;"/>
<stop offset="1" style="stop-color:rgb(36.078432%,41.960785%,75.294119%);stop-opacity:1;"/>
</linearGradient>
<linearGradient id="linear2" gradientUnits="userSpaceOnUse" x1="254" y1="-168.666656" x2="254" y2="233.5" gradientTransform="matrix(0.062506,0,0,0.062506,0,13.438783)">
<stop offset="0" style="stop-color:rgb(30.19608%,71.372551%,67.450982%);stop-opacity:1;"/>
<stop offset="1" style="stop-color:rgb(14.901961%,65.098041%,60.392159%);stop-opacity:1;"/>
</linearGradient>
<linearGradient id="linear3" gradientUnits="userSpaceOnUse" x1="254" y1="-168.666656" x2="254" y2="233.5" gradientTransform="matrix(0.062506,0,0,0.062506,0,13.438783)">
<stop offset="0" style="stop-color:rgb(100%,71.764708%,30.19608%);stop-opacity:1;"/>
<stop offset="1" style="stop-color:rgb(100%,65.490198%,14.901961%);stop-opacity:1;"/>
</linearGradient>
<linearGradient id="linear4" gradientUnits="userSpaceOnUse" x1="960" y1="1695.118164" x2="960" y2="175.118134" gradientTransform="matrix(0.016538,0,0,0.016538,0,0)">
<stop offset="0" style="stop-color:rgb(74.117649%,74.117649%,74.117649%);stop-opacity:1;"/>
<stop offset="1" style="stop-color:rgb(87.843138%,87.843138%,87.843138%);stop-opacity:1;"/>
</linearGradient>
</defs>
<g id="surface1">
<path style=" stroke:none;fill-rule:nonzero;fill:rgb(47.450981%,52.549022%,79.607844%);fill-opacity:0.716129;" d="M 4.449219 2.933594 L 27.300781 2.933594 C 28.117188 2.933594 28.777344 3.59375 28.777344 4.40625 L 28.777344 26.523438 C 28.777344 27.335938 28.117188 27.996094 27.300781 27.996094 L 4.449219 27.996094 C 3.636719 27.996094 2.976562 27.335938 2.976562 26.523438 L 2.976562 4.40625 C 2.976562 3.59375 3.636719 2.933594 4.449219 2.933594 Z M 4.449219 2.933594 "/>
<path style=" stroke:none;fill-rule:nonzero;fill:url(#linear0);" d="M 5.125 28.035156 L 26.792969 28.035156 L 26.792969 29.355469 L 5.125 29.355469 Z M 5.125 28.035156 "/>
<path style=" stroke:none;fill-rule:nonzero;fill:url(#radial0);" d="M 26.792969 28.035156 L 29.4375 28.035156 L 29.4375 26.710938 L 26.792969 26.710938 Z M 26.792969 28.035156 "/>
<path style=" stroke:none;fill-rule:nonzero;fill:url(#radial1);" d="M 5.125 28.035156 L 2.480469 28.035156 L 2.480469 29.355469 L 5.125 29.355469 Z M 5.125 28.035156 "/>
<path style=" stroke:none;fill-rule:nonzero;fill:url(#radial2);" d="M 5.125 28.035156 L 2.480469 28.035156 L 2.480469 26.710938 L 5.125 26.710938 Z M 5.125 28.035156 "/>
<path style=" stroke:none;fill-rule:nonzero;fill:url(#radial3);" d="M 26.792969 28.035156 L 29.4375 28.035156 L 29.4375 29.355469 L 26.792969 29.355469 Z M 26.792969 28.035156 "/>
<path style=" stroke:none;fill-rule:nonzero;fill:url(#linear1);" d="M 4.449219 2.933594 C 3.632812 2.933594 2.976562 3.589844 2.976562 4.40625 L 2.976562 26.523438 C 2.976562 27.339844 3.632812 27.996094 4.449219 27.996094 L 27.300781 27.996094 C 28.117188 27.996094 28.777344 27.339844 28.777344 26.523438 L 28.777344 4.40625 C 28.777344 3.589844 28.117188 2.933594 27.300781 2.933594 Z M 4.449219 2.933594 "/>
<path style=" stroke:none;fill-rule:nonzero;fill:url(#linear2);" d="M 23.773438 2.933594 L 2.976562 21.128906 L 2.976562 26.523438 C 2.976562 27.339844 3.632812 27.996094 4.449219 27.996094 L 27.300781 27.996094 C 28.117188 27.996094 28.777344 27.339844 28.777344 26.523438 L 28.777344 4.40625 C 28.777344 3.589844 28.117188 2.933594 27.300781 2.933594 Z M 23.773438 2.933594 "/>
<path style=" stroke:none;fill-rule:nonzero;fill:url(#linear3);" d="M 28.777344 8.5 L 7.980469 27.996094 L 27.300781 27.996094 C 28.117188 27.996094 28.777344 27.339844 28.777344 26.523438 Z M 28.777344 8.5 "/>
<path style=" stroke:none;fill-rule:nonzero;fill:url(#linear4);" d="M 11.230469 6.515625 C 10.679688 6.523438 10.238281 6.976562 10.246094 7.527344 L 10.246094 14.695312 C 10.238281 14.773438 10.238281 14.851562 10.246094 14.933594 L 10.246094 20.757812 C 10.242188 21.117188 10.433594 21.449219 10.742188 21.632812 C 11.054688 21.8125 11.4375 21.8125 11.75 21.632812 C 12.058594 21.449219 12.25 21.117188 12.246094 20.757812 L 12.246094 15.160156 L 12.890625 14.371094 L 16.96875 22.527344 C 17.132812 22.855469 17.464844 23.066406 17.832031 23.078125 C 18.203125 23.089844 18.546875 22.894531 18.726562 22.574219 L 24.019531 13.3125 C 24.203125 13.003906 24.207031 12.621094 24.023438 12.308594 C 23.84375 11.996094 23.511719 11.804688 23.152344 11.808594 C 22.789062 11.8125 22.460938 12.007812 22.285156 12.324219 L 17.917969 19.964844 L 14.277344 12.675781 L 17.972656 8.160156 C 18.226562 7.859375 18.277344 7.4375 18.109375 7.082031 C 17.9375 6.726562 17.574219 6.507812 17.179688 6.519531 C 16.886719 6.527344 16.609375 6.664062 16.425781 6.894531 L 12.246094 12.007812 L 12.246094 7.527344 C 12.25 7.257812 12.144531 6.996094 11.953125 6.804688 C 11.761719 6.617188 11.5 6.511719 11.230469 6.515625 Z M 11.230469 6.515625 "/>
<path style=" stroke:none;fill-rule:nonzero;fill:rgb(100%,100%,100%);fill-opacity:0.716129;" d="M 11.230469 6.515625 C 10.679688 6.523438 10.238281 6.976562 10.246094 7.527344 L 10.246094 7.859375 C 10.238281 7.308594 10.679688 6.855469 11.230469 6.847656 C 11.5 6.839844 11.761719 6.945312 11.953125 7.136719 C 12.144531 7.328125 12.25 7.589844 12.246094 7.859375 L 12.246094 7.527344 C 12.25 7.257812 12.144531 6.996094 11.953125 6.804688 C 11.761719 6.617188 11.5 6.511719 11.230469 6.515625 Z M 17.179688 6.519531 C 16.886719 6.527344 16.609375 6.664062 16.425781 6.894531 L 12.246094 12.007812 L 12.246094 12.335938 L 16.425781 7.226562 C 16.609375 6.996094 16.886719 6.859375 17.179688 6.847656 C 17.675781 6.835938 18.109375 7.191406 18.191406 7.683594 C 18.242188 7.390625 18.15625 7.085938 17.960938 6.859375 C 17.765625 6.636719 17.476562 6.507812 17.179688 6.519531 Z M 23.164062 11.808594 C 22.800781 11.808594 22.460938 12.003906 22.285156 12.324219 L 17.917969 19.964844 L 14.4375 12.996094 L 14.277344 13.195312 L 14.378906 13.398438 L 14.4375 13.328125 L 17.917969 20.296875 L 22.285156 12.65625 C 22.460938 12.335938 22.800781 12.136719 23.164062 12.140625 C 23.648438 12.144531 24.0625 12.496094 24.144531 12.972656 C 24.191406 12.683594 24.113281 12.390625 23.921875 12.164062 C 23.734375 11.941406 23.457031 11.808594 23.164062 11.808594 Z M 10.246094 14.695312 C 10.238281 14.773438 10.238281 14.851562 10.246094 14.933594 Z M 10.246094 14.695312 "/>
<path style=" stroke:none;fill-rule:nonzero;fill:rgb(0%,0%,0%);fill-opacity:0.235294;" d="M 18.117188 7.894531 C 18.078125 7.976562 18.03125 8.054688 17.972656 8.125 L 14.277344 12.640625 L 14.53125 13.15625 L 17.972656 8.953125 C 18.21875 8.65625 18.277344 8.246094 18.117188 7.894531 Z M 24.070312 13.1875 C 24.054688 13.21875 24.039062 13.25 24.019531 13.28125 L 18.726562 22.542969 C 18.546875 22.859375 18.203125 23.054688 17.832031 23.042969 C 17.464844 23.035156 17.132812 22.820312 16.96875 22.492188 L 12.890625 14.335938 L 12.246094 15.125 L 12.246094 15.953125 L 12.890625 15.164062 L 16.96875 23.320312 C 17.132812 23.648438 17.464844 23.859375 17.832031 23.871094 C 18.203125 23.882812 18.546875 23.6875 18.726562 23.367188 L 24.019531 14.105469 C 24.183594 13.828125 24.203125 13.484375 24.070312 13.1875 Z M 10.246094 15.488281 C 10.238281 15.566406 10.238281 15.644531 10.246094 15.726562 Z M 10.246094 20.722656 L 10.246094 21.550781 C 10.242188 21.910156 10.433594 22.242188 10.742188 22.425781 C 11.054688 22.605469 11.4375 22.605469 11.75 22.425781 C 12.058594 22.242188 12.25 21.910156 12.246094 21.550781 L 12.246094 20.722656 C 12.25 21.082031 12.058594 21.417969 11.75 21.597656 C 11.4375 21.777344 11.054688 21.777344 10.742188 21.597656 C 10.433594 21.417969 10.242188 21.082031 10.246094 20.722656 Z M 10.246094 20.722656 "/>
<path style="fill:none;stroke-width:11.338583;stroke-linecap:round;stroke-linejoin:round;stroke:rgb(12.941177%,12.941177%,12.941177%);stroke-opacity:1;stroke-miterlimit:4;" d="M 679.069046 393.978146 C 645.765138 394.450542 619.074772 421.849501 619.547168 455.153409 L 619.547168 888.576609 C 619.074772 893.300568 619.074772 898.024526 619.547168 902.984683 L 619.547168 1255.155795 C 619.31097 1276.886005 630.884669 1296.962829 649.544305 1308.064131 C 668.440139 1318.929236 691.587536 1318.929236 710.483371 1308.064131 C 729.143007 1296.962829 740.716706 1276.886005 740.480508 1255.155795 L 740.480508 916.684163 L 779.453166 868.972181 L 1026.043804 1362.153457 C 1035.964117 1381.994083 1056.040941 1394.748771 1078.243546 1395.457365 C 1100.68235 1396.165959 1121.467767 1384.356062 1132.332872 1364.987832 L 1452.381066 804.962542 C 1463.482369 786.302906 1463.718567 763.155509 1452.617264 744.259675 C 1441.752159 725.36384 1421.675335 713.790142 1399.945126 714.02634 C 1377.978718 714.262538 1358.138092 726.072434 1347.509185 745.204466 L 1083.439901 1207.207616 L 863.303431 766.46228 L 1086.746672 493.417474 C 1102.099537 475.230233 1105.17011 449.720857 1095.013599 428.226845 C 1084.62089 406.732834 1062.654483 393.50575 1038.798492 394.214344 C 1021.083647 394.686739 1004.313594 402.953667 993.212292 416.889345 L 740.480508 726.072434 L 740.480508 455.153409 C 740.716706 438.855752 734.339362 423.030491 722.765663 411.456792 C 711.191964 400.119292 695.366703 393.741948 679.069046 393.978146 Z M 679.069046 393.978146 " transform="matrix(0.016538,0,0,0.016538,0,0)"/>
<path style=" stroke:none;fill-rule:nonzero;fill:rgb(100%,100%,100%);fill-opacity:0.392157;" d="M 4.449219 2.933594 C 3.632812 2.933594 2.976562 3.589844 2.976562 4.40625 L 2.976562 4.699219 C 2.976562 3.882812 3.632812 3.226562 4.449219 3.226562 L 27.300781 3.226562 C 28.117188 3.226562 28.777344 3.882812 28.777344 4.699219 L 28.777344 4.40625 C 28.777344 3.589844 28.117188 2.933594 27.300781 2.933594 Z M 4.449219 2.933594 "/>
<path style=" stroke:none;fill-rule:nonzero;fill:rgb(0%,0%,0%);fill-opacity:0.235294;" d="M 4.449219 28.035156 C 3.632812 28.035156 2.976562 27.375 2.976562 26.558594 L 2.976562 26.144531 C 2.976562 26.960938 3.632812 27.621094 4.449219 27.621094 L 27.300781 27.621094 C 28.117188 27.621094 28.777344 26.960938 28.777344 26.144531 L 28.777344 26.558594 C 28.777344 27.375 28.117188 28.035156 27.300781 28.035156 Z M 4.449219 28.035156 "/>
<path style="fill:none;stroke-width:3;stroke-linecap:round;stroke-linejoin:round;stroke:rgb(12.941177%,12.941177%,12.941177%);stroke-opacity:1;stroke-miterlimit:4;" d="M 68.805929 -168.691922 L 439.208058 -168.691922 C 450.894442 -168.691922 460.393535 -159.192829 460.393535 -147.506445 L 460.393535 212.334192 C 460.393535 224.020576 450.894442 233.519669 439.208058 233.519669 L 68.805929 233.519669 C 57.119545 233.519669 47.620452 224.020576 47.620452 212.334192 L 47.620452 -147.506445 C 47.620452 -159.192829 57.119545 -168.691922 68.805929 -168.691922 Z M 68.805929 -168.691922 " transform="matrix(0.062506,0,0,0.062506,0,13.438783)"/>
</g>
</svg>
